X:1
T:O thou eternal victim slain
T:O thou eternal victim slain - Substitution (Thomas Jarman)
C:Thomas Jarman
Z:Text: Charles Wesley
%%score [ 1 2 3 4 ]
L:1/8
M:3/2
K:Bb
V:1 treble nm="Soprano" snm="S."
V:2 treble nm="Alto" snm="A."
V:3 treble-8 transpose=-12 nm="Tenor" snm="T."
V:4 bass nm="Bass" snm="B."
V:1
 B4 B4 c4 | (d4 c4) B4 | (G2 c2 B4) A4 | B8 c4 | (d4 c4) B4 | (f4 e4) d4 | (c3 d e4) d4 | c12 | %8
w: O that our|faith _ may|ne- * * ver|move, But|stand _ un-|sha- * ken|as _ _ thy|love,|
w: O thou e-|ter- * nal|vic- * * tim|slain, A|sa- * cri-|fice _ for|guil- * * ty|man;|
w: Thy off- ’ring|still _ con-|ti- * * nues|new, Thy|ves- * ture|keeps _ its|bloo- * * dy|hue,|
 c4 d4 (e3 d) | c8 (f3 e) | (d4 e2 d2) (c2 B2) | (B4 A4) F4 | (B4 c4) d4 | (e4 d4) c4 | %14
w: Sure e- vi- *|dence of _|things _ _ un- *|seen, _ Now|let _ it|pass _ the|
w: By the e- *|ter- nal _|spi- * * rit _|made _ An|off- * ’ring|in _ the|
w: Thou stand’st the _|e- ver _|slaugh- * * ter’d _|Lamb, _ Thy|priest- * hood|still _ re-|
 (d2 c2 B4) A4 | G8 F4 | (B4 d4) f4 | (f4 d4) (d2 f2) | (f2 d2 e4) d4 | (d4 c2 A2) F4 | %20
w: years _ _ be-|tween, And|view _ thee|bleed- * ing _|on _ _ the|tree, _ _ My|
w: sin- * * ner’s|stead: Our|e- * ver-|last- * ing _|priest _ _ art|thou, _ _ And|
w: mains _ _ the|same, Thy|years, _ O|God, _ can _|ne- * * ver|fail, _ _ Thy|
 (B4 c4) d4 | e8 d4 | (c4 B4) A4 | B8 |] %24
w: God, _ who|dies for|me, _ for|me!|
w: plead’st _ thy|death for|sin- * ners|now.|
w: good- * ness|is un-|change- * a-|ble.|
V:2
 D4 F4 F4 | (F4 E4) D4 | (E4 D4) C4 | D8 F4 | F8 (=E2 G2) | A8 B4 | (G4 F4) F4 | F12 | %8
w: O that our|faith _ may|ne- * ver|move, But|stand un- *|sha- ken|as _ thy|love,|
w: O thou e-|ter- * nal|vic- * tim|slain, A|sa- cri- *|fice for|guil- * ty|man;|
w: Thy off- ’ring|still _ con-|ti- * nues|new, Thy|ves- ture _|keeps its|bloo- * dy|hue,|
 F4 F4 (G3 F) | F8 F4 | (F4 G2 F2) (E2 D2) | (D4 C4) F4 | F8 F4 | (G4 F4) (F2 A2) | %14
w: Sure e- vi- *|dence of|things _ _ un- *|seen, _ Now|let it|pass _ the _|
w: By the e- *|ter- nal|spi- * * rit _|made _ An|off- ’ring|in _ the _|
w: Thou stand’st the _|e- ver|slaugh- * * ter’d _|Lamb, _ Thy|priest- hood|still _ re- *|
 (B2 A2 G4) ^F4 | G8 D4 | F8 F4 | F8 F4 | F8 F4 | F8 C4 | (F4 G4) G4 | G8 B4 | (G4 F4) E4 | D8 |] %24
w: years _ _ be-|tween, And|view thee|bleed- ing|on the|tree, My|God, _ who|dies for|me, _ for|me!|
w: sin- * * ner’s|stead: Our|e- ver-|last- ing|priest art|thou, And|plead’st _ thy|death for|sin- * ners|now.|
w: mains _ _ the|same, Thy|years, O|God, can|ne- ver|fail, Thy|good- * ness|is un-|change- * a-|ble.|
V:3
 F4 B4 A4 | (B4 A4) B4 | (B2 G2 F4) F4 | F8 A4 | (B4 c4) c4 | c8 B4 | (B4 A4) B4 | A12 | A4 B4 B4 | %9
w: O that our|faith _ may|ne- * * ver|move, But|stand _ un-|sha- ken|as _ thy|love,|Sure e- vi-|
w: O thou e-|ter- * nal|vic- * * tim|slain, A|sa- * cri-|fice for|guil- * ty|man;|By the e-|
w: Thy off- ’ring|still _ con-|ti- * * nues|new, Thy|ves- * ture|keeps its|bloo- * dy|hue,|Thou stand’st the|
 A8 B4 | B8 G4 | F8 d4 | (B4 A4) B4 | B8 (A2 c2) | (B2 e2 d4) d4 | d8 B4 | (d4 B4) d4 | %17
w: dence of|things un-|seen, Now|let _ it|pass the _|years _ _ be-|tween, And|view _ thee|
w: ter- nal|spi- rit|made An|off- * ’ring|in the _|sin- * * ner’s|stead: Our|e- * ver-|
w: e- ver|slaugh- ter’d|Lamb, Thy|priest- * hood|still re- *|mains _ _ the|same, Thy|years, _ O|
 (d4 B4) (B2 d2) | (B4 A4) B4 | (B4 A4) B4 | (B4 e4) d4 | c8 f4 | (e4 d4) c4 | B8 |] %24
w: bleed- * ing _|on _ the|tree, _ My|God, _ who|dies for|me, _ for|me!|
w: last- * ing _|priest _ art|thou, _ And|plead’st _ thy|death for|sin- * ners|now.|
w: God, _ can _|ne- * ver|fail, _ Thy|good- * ness|is un-|change- * a-|ble.|
V:4
 B,,4 D,4 F,4 | (B,4 F,4) G,4 | (E,4 F,4) F,4 | B,,8 F,4 | (B,4 A,4) G,4 | F,8 F,4 | %6
w: O that our|faith _ may|ne- * ver|move, But|stand _ un-|sha- ken|
w: O thou e-|ter- * nal|vic- * tim|slain, A|sa- * cri-|fice for|
w: Thy off- ’ring|still _ con-|ti- * nues|new, Thy|ves- * ture|keeps its|
 (E,3 D, C,4) B,,4 | F,12 | F,4 B,4 E,4 | (F,4 E,4) D,4 | (B,4 E,4) E,4 | F,8 B,,4 | %12
w: as _ _ thy|love,|Sure e- vi-|dence _ of|things _ un-|seen, Now|
w: guil- * * ty|man;|By the e-|ter- * nal|spi- * rit|made An|
w: bloo- * * dy|hue,|Thou stand’st the|e- * ver|slaugh- * ter’d|Lamb, Thy|
 (D,4 C,4) B,,4 | (E,4 F,4) F,4 | (B,,2 C,2 D,4) D,4 | G,,8 B,,4 | B,,8 B,4 | B,8 B,4 | %18
w: let _ it|pass _ the|years _ _ be-|tween, And|view thee|bleed- ing|
w: off- * ’ring|in _ the|sin- * * ner’s|stead: Our|e- ver-|last- ing|
w: priest- * hood|still _ re-|mains _ _ the|same, Thy|years, O|God, can|
"^The source gives the parts in the order Tenor - Alto - Treble - Bass (labelled as such in the first piece in the book).The treble and bass parts are bracketed together, with small notes between them to fill in the harmony of a keyboardpart which predominantly doubles the voices. This accompaniment has been omitted from the present edition.Only the first verse of the text is given in the source: subsequent verses have here been underlaid editorially." (D4 C4) B,4 | %19
w: on _ the|
w: priest _ art|
w: ne- * ver|
 F,8 E,4 | (D,4 C,4) =B,,4 | C,8 D,4 | (E,4 F,4) F,4 | B,,8 |] %24
w: tree, My|God, _ who|dies for|me, _ for|me!|
w: thou, And|plead’st _ thy|death for|sin- * ners|now.|
w: fail, Thy|good- * ness|is un-|change- * a-|ble.|

